X:107
T:When Icicles Hang by the Wall
M:6/8
Q:320
L:1/8
C:Jo Anne Rocke
K:Gmix
D3 |: "G"GGG AGA | "G"BAG "Am"AGE | "G"DGA Bcd | "G"fed "Dm"cBA |
"G"GAB AGE | D2D "Dm"EDG | "Em"B,2B,- "F"B,A,C |1 "G"B,3 "D7"DED :|2 "G"B,3 DGA ||
K: Bmin
|: "Bm"BBc cBB | "E7"cde dcB | "Bm"A2F- FAE | "F#m"FAE DEF |1 "G"BBc cBB |
"A"cde "Bm"def | "Em"g2e- eBc | "F#7"^AEF GFF :|2 "G"B2A- AGG | "C"GFF FEE |"D"DEF GFG | "Em"E3 ||
